incomeartour/img/printer.svg

<svg width="36" height="36" viewBox="0 0 36 36" fill="none" xmlns="http://www.w3.org/2000/svg">
<path d="M2.53972 9.07056H6.57207V2.48689C6.57207 1.88563 7.0594 1.39844 7.66052 1.39844H28.3395C28.9406 1.39844 29.4279 1.88563 29.4279 2.48689V9.07056H33.4603C34.8606 9.07056 36 10.2098 36 11.6103V25.5751C36 26.9754 34.8606 28.1148 33.4603 28.1148H29.4279V33.514C29.4279 34.1152 28.9406 34.6024 28.3395 34.6024H7.66066C7.05955 34.6024 6.57221 34.1152 6.57221 33.514V28.1148H2.53986C1.13954 28.1148 0.000144958 26.9754 0.000144958 25.5751V11.6103C0 10.21 1.13939 9.07056 2.53972 9.07056ZM27.251 3.57534H8.74911V9.07056H27.251V3.57534ZM8.74911 32.4255H27.251V21.6275H8.74911V32.4255ZM2.1769 25.5751C2.1769 25.7718 2.34307 25.9379 2.53972 25.9379H6.57207V20.5391C6.57207 19.9378 7.0594 19.4506 7.66052 19.4506H28.3395C28.9406 19.4506 29.4279 19.9378 29.4279 20.5391V25.9379H33.4603C33.6569 25.9379 33.8231 25.7718 33.8231 25.5751V11.6103C33.8231 11.4135 33.6569 11.2475 33.4603 11.2475H28.3395H7.66066H2.53986C2.34322 11.2475 2.17705 11.4135 2.17705 11.6103V25.5751H2.1769Z" fill="#FAA619"/>
<path d="M7.66077 16.8972C6.80571 16.8972 6.11255 16.204 6.11255 15.349C6.11255 14.4939 6.80571 13.8008 7.66077 13.8008C8.51583 13.8008 9.20898 14.4939 9.20898 15.349C9.20898 16.204 8.51583 16.8972 7.66077 16.8972Z" fill="#FAA619"/>
<path d="M13.048 23.7749H22.9521C23.5532 23.7749 24.0405 24.2621 24.0405 24.8634C24.0405 25.4646 23.5532 25.9518 22.9521 25.9518H13.048C12.4469 25.9518 11.9596 25.4646 11.9596 24.8634C11.9596 24.2622 12.4468 23.7749 13.048 23.7749Z" fill="#FAA619"/>
<path d="M13.048 28.1006H22.9521C23.5532 28.1006 24.0405 28.5878 24.0405 29.189C24.0405 29.7903 23.5532 30.2775 22.9521 30.2775H13.048C12.4469 30.2775 11.9596 29.7903 11.9596 29.189C11.9596 28.5878 12.4468 28.1006 13.048 28.1006Z" fill="#FAA619"/>
</svg>

<svg width="36" height="36" fill="none" xmlns="http://www.w3.org/2000/svg"><path d="M2.54 9.07h4.032V2.488c0-.601.487-1.089 1.089-1.089H28.34c.6 0 1.088.488 1.088 1.089V9.07h4.032c1.4 0 2.54 1.139 2.54 2.54v13.964c0 1.4-1.14 2.54-2.54 2.54h-4.032v5.399c0 .601-.487 1.088-1.088 1.088H7.66a1.088 1.088 0 01-1.088-1.088v-5.4H2.54c-1.4 0-2.54-1.139-2.54-2.539V11.61c0-1.4 1.14-2.54 2.54-2.54zm24.71-5.494H8.749v5.496h18.502V3.575zM8.749 32.425h18.502V21.628H8.749v10.797zm-6.572-6.85c0 .197.166.363.363.363h4.032v-5.399c0-.601.487-1.088 1.089-1.088H28.34c.6 0 1.088.487 1.088 1.088v5.399h4.032a.368.368 0 00.363-.363V11.61a.368.368 0 00-.363-.362H2.54a.368.368 0 00-.363.362v13.965z" fill="#FAA619"/><path d="M7.66 16.897a1.548 1.548 0 110-3.096 1.548 1.548 0 010 3.096zm5.388 6.878h9.904a1.088 1.088 0 110 2.177h-9.904a1.088 1.088 0 110-2.177zm0 4.325h9.904a1.088 1.088 0 110 2.177h-9.904a1.088 1.088 0 110-2.176z" fill="#FAA619"/></svg>
